src/assets/story.svg

<svg xmlns="http://www.w3.org/2000/svg" viewBox="0 0 24.681 24.681" height="93.281" width="93.281"><defs><clipPath id="a" clipPathUnits="userSpaceOnUse"><path d="M0 841.89h595.276V0H0z"/></clipPath></defs><g clip-path="url(#a)" transform="matrix(.35278 0 0 -.35278 -92.53 153.471)"><path style="fill:#70c861;fill-opacity:1;fill-rule:nonzero;stroke:none" d="M0 0c0-19.319-15.662-34.98-34.981-34.98-19.319 0-34.98 15.661-34.98 34.98 0 19.319 15.661 34.981 34.98 34.981C-15.662 34.981 0 19.319 0 0" transform="translate(332.252 400.056)"/><path style="fill:#fff;fill-opacity:1;fill-rule:nonzero;stroke:none" d="M0 0v9.17h-7.853C-5.98 5.455-3.395 2.442 0 0m1.588 9.171V-.021C5 2.429 7.599 5.449 9.467 9.171zm-.02 21.672c.117-.019.186-.039.256-.038 2.563.004 5.128.01 7.691.017.016 0 .034.016.046.03.011.012.013.033.036.1-1.847 3.807-4.498 6.966-8.029 9.497zm-9.619-.032H.003v9.616c-3.509-2.527-6.149-5.691-8.054-9.616m19.383-.005c1.219-.111 6.604-.065 7.037.068-3.355 5.133-7.99 8.311-14.031 9.422 3.015-2.661 5.358-5.807 6.994-9.49m-21.047-.013c1.632 3.7 3.985 6.839 7.005 9.498-3.062-.482-5.838-1.64-8.353-3.416a20.361 20.361 0 0 1-5.706-6.082zM-16.75 9.174a20.583 20.583 0 0 1 6.261-6.436C-7.967 1.079-3.544-.543-2.093-.329c-3.238 2.607-5.714 5.782-7.468 9.503zm35.125-.012h-7.24C9.394 5.399 6.91 2.251 3.679-.354 5.164-.466 9.043.871 11.416 2.304c2.853 1.723 5.166 3.996 6.959 6.858m.853 20.089h-7.257c1.009-2.765 1.507-5.573 1.594-8.465h7.82c.197 1.916-.952 6.408-2.157 8.465m-31.166-8.473c.067 2.938.609 5.74 1.584 8.477h-7.289c-1.324-2.684-2.054-5.48-2.167-8.477zM13.55 19.24c-.116-2.932-.698-5.744-1.718-8.504h7.428a20.268 20.268 0 0 1 2.149 8.504zm-33.367.007c.126-3.026.842-5.846 2.173-8.5h7.436a26.7 26.7 0 0 0-1.716 8.5zm11.255-8.496h8.548v8.488h-10.385a24.33 24.33 0 0 1 1.837-8.488m20.579 8.484H1.603v-8.484h8.582c1.105 2.729 1.727 5.528 1.832 8.484m-22.385 1.555H-.004v8.467h-8.673c-.926-1.814-1.936-6.87-1.691-8.467m11.975 8.472v-8.479h10.405c-.033 2.963-.626 5.775-1.684 8.479zm21.194-9.255c.068-11.8-9.53-22.024-22.03-22.01-12.14.014-22.013 9.833-21.967 22.081.046 12.456 10.237 21.939 22.012 21.929 12.126-.01 22.036-9.937 21.985-22" transform="translate(296.468 380.054)"/></g></svg>

<?xml version="1.0" encoding="UTF-8" standalone="no"?>
<svg
   xmlns:dc="http://purl.org/dc/elements/1.1/"
   xmlns:cc="http://creativecommons.org/ns#"
   xmlns:rdf="http://www.w3.org/1999/02/22-rdf-syntax-ns#"
   xmlns:svg="http://www.w3.org/2000/svg"
   xmlns="http://www.w3.org/2000/svg"
   id="svg6165"
   version="1.1"
   viewBox="0 0 24.680685 24.680685"
   height="24.680685mm"
   width="24.680685mm">
  <defs
     id="defs6159">
    <clipPath
       id="clipPath1056-3"
       clipPathUnits="userSpaceOnUse">
      <path
         id="path1054-6"
         d="M 0,841.89 H 595.276 V 0 H 0 Z" />
    </clipPath>
  </defs>
  <metadata
     id="metadata6162">
    <rdf:RDF>
      <cc:Work
         rdf:about="">
        <dc:format>image/svg+xml</dc:format>
        <dc:type
           rdf:resource="http://purl.org/dc/dcmitype/StillImage" />
        <dc:title></dc:title>
      </cc:Work>
    </rdf:RDF>
  </metadata>
  <g
     transform="translate(-346.75221,-159.92751)"
     id="layer1">
    <g
       id="g1050-4"
       transform="matrix(0.35277777,0,0,-0.35277777,254.22178,313.39882)">
      <g
         clip-path="url(#clipPath1056-3)"
         id="g1052-9">
        <g
           transform="translate(332.252,400.0558)"
           id="g1058-1">
          <path
             id="path1060-23"
             style="fill:#70c861;fill-opacity:1;fill-rule:nonzero;stroke:none"
             d="M 0,0 C 0,-19.319 -15.662,-34.98 -34.981,-34.98 -54.3,-34.98 -69.961,-19.319 -69.961,0 -69.961,19.319 -54.3,34.981 -34.981,34.981 -15.662,34.981 0,19.319 0,0" />
        </g>
        <g
           transform="translate(296.4683,380.0538)"
           id="g1062-18">
          <path
             id="path1064-1"
             style="fill:#ffffff;fill-opacity:1;fill-rule:nonzero;stroke:none"
             d="M 0,0 V 9.17 H -7.853 C -5.98,5.455 -3.395,2.442 0,0 M 1.588,9.171 V -0.021 C 5,2.429 7.599,5.449 9.467,9.171 Z M 1.568,30.843 C 1.685,30.824 1.754,30.804 1.824,30.805 4.387,30.809 6.952,30.815 9.515,30.822 9.531,30.822 9.549,30.838 9.561,30.852 9.572,30.864 9.574,30.885 9.597,30.952 7.75,34.759 5.099,37.918 1.568,40.449 Z M -8.051,30.811 H 0.003 V 40.427 C -3.506,37.9 -6.146,34.736 -8.051,30.811 M 11.332,30.806 C 12.551,30.695 17.936,30.741 18.369,30.874 15.014,36.007 10.379,39.185 4.338,40.296 7.353,37.635 9.696,34.489 11.332,30.806 M -9.715,30.793 C -8.083,34.493 -5.73,37.632 -2.71,40.291 -5.772,39.809 -8.548,38.651 -11.063,36.875 -13.359,35.254 -15.26,33.257 -16.769,30.793 Z M -16.75,9.174 C -15.11,6.533 -13.031,4.411 -10.489,2.738 -7.967,1.079 -3.544,-0.543 -2.093,-0.329 -5.331,2.278 -7.807,5.453 -9.561,9.174 Z M 18.375,9.162 H 11.135 C 9.394,5.399 6.91,2.251 3.679,-0.354 5.164,-0.466 9.043,0.871 11.416,2.304 14.269,4.027 16.582,6.3 18.375,9.162 M 19.228,29.251 H 11.971 C 12.98,26.486 13.478,23.678 13.565,20.786 H 21.385 C 21.582,22.702 20.433,27.194 19.228,29.251 M -11.938,20.778 C -11.871,23.716 -11.329,26.518 -10.354,29.255 H -17.643 C -18.967,26.571 -19.697,23.775 -19.81,20.778 Z M 13.55,19.24 C 13.434,16.308 12.852,13.496 11.832,10.736 H 19.26 C 20.585,13.402 21.315,16.219 21.409,19.24 Z M -19.817,19.247 C -19.691,16.221 -18.975,13.401 -17.644,10.747 H -10.208 C -11.251,13.506 -11.812,16.324 -11.924,19.247 Z M -8.562,10.751 H -0.014 V 19.239 H -10.399 C -10.291,16.27 -9.678,13.453 -8.562,10.751 M 12.017,19.235 H 1.603 V 10.751 H 10.185 C 11.29,13.48 11.912,16.279 12.017,19.235 M -10.368,20.79 H -0.004 V 29.257 H -8.677 C -9.603,27.443 -10.613,22.387 -10.368,20.79 M 1.607,29.262 V 20.783 H 12.012 C 11.979,23.746 11.386,26.558 10.328,29.262 Z M 22.801,20.007 C 22.869,8.207 13.271,-2.017 0.771,-2.003 -11.369,-1.989 -21.242,7.83 -21.196,20.078 -21.15,32.534 -10.959,42.017 0.816,42.007 12.942,41.997 22.852,32.07 22.801,20.007" />
        </g>
      </g>
    </g>
  </g>
</svg>
